X:1
T: I'll Break your Head for You
C:
R:Reel
Q: 232
K:Gm
M:4/4
L:1/8
|:e|d2 de d2 cB|B2 BB c2 cc|d2 de d2 cB|AG ^FA G1/2G1/2G Ge|
d2 de d2 cB|B2 BB c2 cc|d2 de d2 cB|AG ^FA G1/2G1/2G GA|
B1/2B1/2B fg fd dc|B1/2B1/2B fB d1/2d1/2d d2|B1/2B1/2B fB d1/2d1/2d db|gB fB G1/2G1/2G GA|
B1/2B1/2B fg fd dc|B1/2B1/2B fB d1/2d1/2d d2|B1/2B1/2B fB d1/2d1/2d db|gB fB G1/2G1/2G G:|
